X:1065
T:Flowers of Edinbourgh
A:Wyresdale, Lancashire
B:E and J Winder, 1835-41
L:1/8
M:C
O:England
Z:Richard Robinson 
%%TUNEURL: http://www.leeds.ac.uk/music/Info/RRTuneBk/gettune/00001040.html
%%ID:00001040
K:C
cB | \
G2GA c2cd | ecgd e2dc | dcBA GABc | dBgB ABcA | \
G2GA c2cd | edef a2(3abc' | e2dc B2cd | e2c2 c2 ::
g2 | \
c'bc'd' e'2d'c' | babc' d'2c'b | agab c'bag | e2a2 a2(c'a) | \
gece g2g2 | agab c'2(c'a) | gfed cBcd | e2c2 c2 ::
